X:1
T: The Bunch of Roses
C:
R:Reel
Q: 232
K:G
M:4/4
L:1/8
dc|BG ((3GGG) Bd gd|BG AG FG Ac|Bc BA Bd gd|cA BG DG G2|
BG ((3GGG) Bd gd|BG AG FG Ac|Bc BA Bd gd|cA BG DG G2|
|:dg g2 ag bg|ag bg ea a2|dg g2 ag bg|ge dc BG G2|
dg g2 ag bg|ag bg ea a2|bg ef ge dc|Bc Ac BG G2:|
BG ((3GGG) Bd gd|BG AG FG Ac|Bc BA Bd gd|cA BG DG G2|
BG ((3GGG) Bd gd|BG AG FG Ac|Bc BA Bd gd|cA BG DG G2||
